X: 6927
T: Cherline Chase
R: polka
M: 2/4
K: Cmajor
|:C>D EG|Bc A2|F>{GF}E DF|EG FD|
C>D EG|Bc A>e|fd BG|c/c/d d2:|
|:e2 eg|f2 fd|BG B/c/d|cB AG|
e2 eg|f2 fd|BG B/c/d|ec c2:|

